assets/Glass of milk/Flat/glass_of_milk_flat.svg

<svg width="32" height="32" viewBox="0 0 32 32" fill="none" xmlns="http://www.w3.org/2000/svg">
<path d="M4.00949 3.06581L7.7896 29.1932C7.86016 29.6514 8.2533 30 8.72707 30H23.2729C23.7467 30 24.1499 29.6613 24.2104 29.1932L27.9905 3.06581C28.0712 2.508 27.6276 2 27.053 2H4.94696C4.37238 2 3.92885 2.508 4.00949 3.06581Z" fill="#AEDDFF"/>
<path d="M6.50999 9.29455L8.97101 26.4623C9.01102 26.771 9.28113 27 9.59126 27H22.3966C22.7067 27 22.9768 26.771 23.0168 26.4623L25.4879 9.29455C25.5879 8.60744 25.0577 8 24.3574 8H7.64045C6.95017 8 6.41995 8.6174 6.50999 9.29455Z" fill="#F3EEF8"/>
<path d="M24.8558 5.21513C24.9342 4.66844 24.5545 4.16173 24.0078 4.08336C23.4611 4.005 22.9544 4.38467 22.876 4.93136L19.7128 27H21.7333L24.8558 5.21513Z" fill="white"/>
</svg>

<svg xmlns="http://www.w3.org/2000/svg" width="32" height="32" fill="none"><path fill="#AEDDFF" d="m4.01 3.066 3.78 26.127a.95.95 0 0 0 .937.807h14.546a.934.934 0 0 0 .937-.807l3.78-26.127A.942.942 0 0 0 27.053 2H4.947a.942.942 0 0 0-.938 1.066Z"/><path fill="#F3EEF8" d="m6.51 9.295 2.461 17.167c.04.309.31.538.62.538h12.806c.31 0 .58-.229.62-.538l2.47-17.167c.1-.688-.43-1.295-1.13-1.295H7.64c-.69 0-1.22.617-1.13 1.295Z"/><path fill="#fff" d="M24.856 5.215a1 1 0 1 0-1.98-.284L19.713 27h2.02l3.123-21.785Z"/></svg>
